nodes/ApplyLUT/cold_tint.cube
TITLE "Cold Tint"
LUT_3D_SIZE 5
0.000000 0.000000 0.000000
0.237500 0.000000 0.000000
0.475000 0.000000 0.000000
0.712500 0.000000 0.000000
0.950000 0.000000 0.000000
0.000000 0.250000 0.000000
0.237500 0.250000 0.000000
0.475000 0.250000 0.000000
0.712500 0.250000 0.000000
0.950000 0.250000 0.000000
0.000000 0.500000 0.000000
0.237500 0.500000 0.000000
0.475000 0.500000 0.000000
0.712500 0.500000 0.000000
0.950000 0.500000 0.000000
0.000000 0.750000 0.000000
0.237500 0.750000 0.000000
0.475000 0.750000 0.000000
0.712500 0.750000 0.000000
0.950000 0.750000 0.000000
0.000000 1.000000 0.000000
0.237500 1.000000 0.000000
0.475000 1.000000 0.000000
0.712500 1.000000 0.000000
0.950000 1.000000 0.000000
0.000000 0.000000 0.262500
0.237500 0.000000 0.262500
0.475000 0.000000 0.262500
0.712500 0.000000 0.262500
0.950000 0.000000 0.262500
0.000000 0.250000 0.262500
0.237500 0.250000 0.262500
0.475000 0.250000 0.262500
0.712500 0.250000 0.262500
0.950000 0.250000 0.262500
0.000000 0.500000 0.262500
0.237500 0.500000 0.262500
0.475000 0.500000 0.262500
0.712500 0.500000 0.262500
0.950000 0.500000 0.262500
0.000000 0.750000 0.262500
0.237500 0.750000 0.262500
0.475000 0.750000 0.262500
0.712500 0.750000 0.262500
0.950000 0.750000 0.262500
0.000000 1.000000 0.262500
0.237500 1.000000 0.262500
0.475000 1.000000 0.262500
0.712500 1.000000 0.262500
0.950000 1.000000 0.262500
0.000000 0.000000 0.525000
0.237500 0.000000 0.525000
0.475000 0.000000 0.525000
0.712500 0.000000 0.525000
0.950000 0.000000 0.525000
0.000000 0.250000 0.525000
0.237500 0.250000 0.525000
0.475000 0.250000 0.525000
0.712500 0.250000 0.525000
0.950000 0.250000 0.525000
0.000000 0.500000 0.525000
0.237500 0.500000 0.525000
0.475000 0.500000 0.525000
0.712500 0.500000 0.525000
0.950000 0.500000 0.525000
0.000000 0.750000 0.525000
0.237500 0.750000 0.525000
0.475000 0.750000 0.525000
0.712500 0.750000 0.525000
0.950000 0.750000 0.525000
0.000000 1.000000 0.525000
0.237500 1.000000 0.525000
0.475000 1.000000 0.525000
0.712500 1.000000 0.525000
0.950000 1.000000 0.525000
0.000000 0.000000 0.787500
0.237500 0.000000 0.787500
0.475000 0.000000 0.787500
0.712500 0.000000 0.787500
0.950000 0.000000 0.787500
0.000000 0.250000 0.787500
0.237500 0.250000 0.787500
0.475000 0.250000 0.787500
0.712500 0.250000 0.787500
0.950000 0.250000 0.787500
0.000000 0.500000 0.787500
0.237500 0.500000 0.787500
0.475000 0.500000 0.787500
0.712500 0.500000 0.787500
0.950000 0.500000 0.787500
0.000000 0.750000 0.787500
0.237500 0.750000 0.787500
0.475000 0.750000 0.787500
0.712500 0.750000 0.787500
0.950000 0.750000 0.787500
0.000000 1.000000 0.787500
0.237500 1.000000 0.787500
0.475000 1.000000 0.787500
0.712500 1.000000 0.787500
0.950000 1.000000 0.787500
0.000000 0.000000 1.000000
0.237500 0.000000 1.000000
0.475000 0.000000 1.000000
0.712500 0.000000 1.000000
0.950000 0.000000 1.000000
0.000000 0.250000 1.000000
0.237500 0.250000 1.000000
0.475000 0.250000 1.000000
0.712500 0.250000 1.000000
0.950000 0.250000 1.000000
0.000000 0.500000 1.000000
0.237500 0.500000 1.000000
0.475000 0.500000 1.000000
0.712500 0.500000 1.000000
0.950000 0.500000 1.000000
0.000000 0.750000 1.000000
0.237500 0.750000 1.000000
0.475000 0.750000 1.000000
0.712500 0.750000 1.000000
0.950000 0.750000 1.000000
0.000000 1.000000 1.000000
0.237500 1.000000 1.000000
0.475000 1.000000 1.000000
0.712500 1.000000 1.000000
0.950000 1.000000 1.000000
