nodes/ApplyLUT/cold_tint.cube
TITLE "Cold Tint"
LUT_3D_SIZE 9
0.000000 0.000000 0.000000
0.118750 0.000000 0.000000
0.237500 0.000000 0.000000
0.356250 0.000000 0.000000
0.475000 0.000000 0.000000
0.593750 0.000000 0.000000
0.712500 0.000000 0.000000
0.831250 0.000000 0.000000
0.950000 0.000000 0.000000
0.000000 0.125000 0.000000
0.118750 0.125000 0.000000
0.237500 0.125000 0.000000
0.356250 0.125000 0.000000
0.475000 0.125000 0.000000
0.593750 0.125000 0.000000
0.712500 0.125000 0.000000
0.831250 0.125000 0.000000
0.950000 0.125000 0.000000
0.000000 0.250000 0.000000
0.118750 0.250000 0.000000
0.237500 0.250000 0.000000
0.356250 0.250000 0.000000
0.475000 0.250000 0.000000
0.593750 0.250000 0.000000
0.712500 0.250000 0.000000
0.831250 0.250000 0.000000
0.950000 0.250000 0.000000
0.000000 0.375000 0.000000
0.118750 0.375000 0.000000
0.237500 0.375000 0.000000
0.356250 0.375000 0.000000
0.475000 0.375000 0.000000
0.593750 0.375000 0.000000
0.712500 0.375000 0.000000
0.831250 0.375000 0.000000
0.950000 0.375000 0.000000
0.000000 0.500000 0.000000
0.118750 0.500000 0.000000
0.237500 0.500000 0.000000
0.356250 0.500000 0.000000
0.475000 0.500000 0.000000
0.593750 0.500000 0.000000
0.712500 0.500000 0.000000
0.831250 0.500000 0.000000
0.950000 0.500000 0.000000
0.000000 0.625000 0.000000
0.118750 0.625000 0.000000
0.237500 0.625000 0.000000
0.356250 0.625000 0.000000
0.475000 0.625000 0.000000
0.593750 0.625000 0.000000
0.712500 0.625000 0.000000
0.831250 0.625000 0.000000
0.950000 0.625000 0.000000
0.000000 0.750000 0.000000
0.118750 0.750000 0.000000
0.237500 0.750000 0.000000
0.356250 0.750000 0.000000
0.475000 0.750000 0.000000
0.593750 0.750000 0.000000
0.712500 0.750000 0.000000
0.831250 0.750000 0.000000
0.950000 0.750000 0.000000
0.000000 0.875000 0.000000
0.118750 0.875000 0.000000
0.237500 0.875000 0.000000
0.356250 0.875000 0.000000
0.475000 0.875000 0.000000
0.593750 0.875000 0.000000
0.712500 0.875000 0.000000
0.831250 0.875000 0.000000
0.950000 0.875000 0.000000
0.000000 1.000000 0.000000
0.118750 1.000000 0.000000
0.237500 1.000000 0.000000
0.356250 1.000000 0.000000
0.475000 1.000000 0.000000
0.593750 1.000000 0.000000
0.712500 1.000000 0.000000
0.831250 1.000000 0.000000
0.950000 1.000000 0.000000
0.000000 0.000000 0.131250
0.118750 0.000000 0.131250
0.237500 0.000000 0.131250
0.356250 0.000000 0.131250
0.475000 0.000000 0.131250
0.593750 0.000000 0.131250
0.712500 0.000000 0.131250
0.831250 0.000000 0.131250
0.950000 0.000000 0.131250
0.000000 0.125000 0.131250
0.118750 0.125000 0.131250
0.237500 0.125000 0.131250
0.356250 0.125000 0.131250
0.475000 0.125000 0.131250
0.593750 0.125000 0.131250
0.712500 0.125000 0.131250
0.831250 0.125000 0.131250
0.950000 0.125000 0.131250
0.000000 0.250000 0.131250
0.118750 0.250000 0.131250
0.237500 0.250000 0.131250
0.356250 0.250000 0.131250
0.475000 0.250000 0.131250
0.593750 0.250000 0.131250
0.712500 0.250000 0.131250
0.831250 0.250000 0.131250
0.950000 0.250000 0.131250
0.000000 0.375000 0.131250
0.118750 0.375000 0.131250
0.237500 0.375000 0.131250
0.356250 0.375000 0.131250
0.475000 0.375000 0.131250
0.593750 0.375000 0.131250
0.712500 0.375000 0.131250
0.831250 0.375000 0.131250
0.950000 0.375000 0.131250
0.000000 0.500000 0.131250
0.118750 0.500000 0.131250
0.237500 0.500000 0.131250
0.356250 0.500000 0.131250
0.475000 0.500000 0.131250
0.593750 0.500000 0.131250
0.712500 0.500000 0.131250
0.831250 0.500000 0.131250
0.950000 0.500000 0.131250
0.000000 0.625000 0.131250
0.118750 0.625000 0.131250
0.237500 0.625000 0.131250
0.356250 0.625000 0.131250
0.475000 0.625000 0.131250
0.593750 0.625000 0.131250
0.712500 0.625000 0.131250
0.831250 0.625000 0.131250
0.950000 0.625000 0.131250
0.000000 0.750000 0.131250
0.118750 0.750000 0.131250
0.237500 0.750000 0.131250
0.356250 0.750000 0.131250
0.475000 0.750000 0.131250
0.593750 0.750000 0.131250
0.712500 0.750000 0.131250
0.831250 0.750000 0.131250
0.950000 0.750000 0.131250
0.000000 0.875000 0.131250
0.118750 0.875000 0.131250
0.237500 0.875000 0.131250
0.356250 0.875000 0.131250
0.475000 0.875000 0.131250
0.593750 0.875000 0.131250
0.712500 0.875000 0.131250
0.831250 0.875000 0.131250
0.950000 0.875000 0.131250
0.000000 1.000000 0.131250
0.118750 1.000000 0.131250
0.237500 1.000000 0.131250
0.356250 1.000000 0.131250
0.475000 1.000000 0.131250
0.593750 1.000000 0.131250
0.712500 1.000000 0.131250
0.831250 1.000000 0.131250
0.950000 1.000000 0.131250
0.000000 0.000000 0.262500
0.118750 0.000000 0.262500
0.237500 0.000000 0.262500
0.356250 0.000000 0.262500
0.475000 0.000000 0.262500
0.593750 0.000000 0.262500
0.712500 0.000000 0.262500
0.831250 0.000000 0.262500
0.950000 0.000000 0.262500
0.000000 0.125000 0.262500
0.118750 0.125000 0.262500
0.237500 0.125000 0.262500
0.356250 0.125000 0.262500
0.475000 0.125000 0.262500
0.593750 0.125000 0.262500
0.712500 0.125000 0.262500
0.831250 0.125000 0.262500
0.950000 0.125000 0.262500
0.000000 0.250000 0.262500
0.118750 0.250000 0.262500
0.237500 0.250000 0.262500
0.356250 0.250000 0.262500
0.475000 0.250000 0.262500
0.593750 0.250000 0.262500
0.712500 0.250000 0.262500
0.831250 0.250000 0.262500
0.950000 0.250000 0.262500
0.000000 0.375000 0.262500
0.118750 0.375000 0.262500
0.237500 0.375000 0.262500
0.356250 0.375000 0.262500
0.475000 0.375000 0.262500
0.593750 0.375000 0.262500
0.712500 0.375000 0.262500
0.831250 0.375000 0.262500
0.950000 0.375000 0.262500
0.000000 0.500000 0.262500
0.118750 0.500000 0.262500
0.237500 0.500000 0.262500
0.356250 0.500000 0.262500
0.475000 0.500000 0.262500
0.593750 0.500000 0.262500
0.712500 0.500000 0.262500
0.831250 0.500000 0.262500
0.950000 0.500000 0.262500
0.000000 0.625000 0.262500
0.118750 0.625000 0.262500
0.237500 0.625000 0.262500
0.356250 0.625000 0.262500
0.475000 0.625000 0.262500
0.593750 0.625000 0.262500
0.712500 0.625000 0.262500
0.831250 0.625000 0.262500
0.950000 0.625000 0.262500
0.000000 0.750000 0.262500
0.118750 0.750000 0.262500
0.237500 0.750000 0.262500
0.356250 0.750000 0.262500
0.475000 0.750000 0.262500
0.593750 0.750000 0.262500
0.712500 0.750000 0.262500
0.831250 0.750000 0.262500
0.950000 0.750000 0.262500
0.000000 0.875000 0.262500
0.118750 0.875000 0.262500
0.237500 0.875000 0.262500
0.356250 0.875000 0.262500
0.475000 0.875000 0.262500
0.593750 0.875000 0.262500
0.712500 0.875000 0.262500
0.831250 0.875000 0.262500
0.950000 0.875000 0.262500
0.000000 1.000000 0.262500
0.118750 1.000000 0.262500
0.237500 1.000000 0.262500
0.356250 1.000000 0.262500
0.475000 1.000000 0.262500
0.593750 1.000000 0.262500
0.712500 1.000000 0.262500
0.831250 1.000000 0.262500
0.950000 1.000000 0.262500
0.000000 0.000000 0.393750
0.118750 0.000000 0.393750
0.237500 0.000000 0.393750
0.356250 0.000000 0.393750
0.475000 0.000000 0.393750
0.593750 0.000000 0.393750
0.712500 0.000000 0.393750
0.831250 0.000000 0.393750
0.950000 0.000000 0.393750
0.000000 0.125000 0.393750
0.118750 0.125000 0.393750
0.237500 0.125000 0.393750
0.356250 0.125000 0.393750
0.475000 0.125000 0.393750
0.593750 0.125000 0.393750
0.712500 0.125000 0.393750
0.831250 0.125000 0.393750
0.950000 0.125000 0.393750
0.000000 0.250000 0.393750
0.118750 0.250000 0.393750
0.237500 0.250000 0.393750
0.356250 0.250000 0.393750
0.475000 0.250000 0.393750
0.593750 0.250000 0.393750
0.712500 0.250000 0.393750
0.831250 0.250000 0.393750
0.950000 0.250000 0.393750
0.000000 0.375000 0.393750
0.118750 0.375000 0.393750
0.237500 0.375000 0.393750
0.356250 0.375000 0.393750
0.475000 0.375000 0.393750
0.593750 0.375000 0.393750
0.712500 0.375000 0.393750
0.831250 0.375000 0.393750
0.950000 0.375000 0.393750
0.000000 0.500000 0.393750
0.118750 0.500000 0.393750
0.237500 0.500000 0.393750
0.356250 0.500000 0.393750
0.475000 0.500000 0.393750
0.593750 0.500000 0.393750
0.712500 0.500000 0.393750
0.831250 0.500000 0.393750
0.950000 0.500000 0.393750
0.000000 0.625000 0.393750
0.118750 0.625000 0.393750
0.237500 0.625000 0.393750
0.356250 0.625000 0.393750
0.475000 0.625000 0.393750
0.593750 0.625000 0.393750
0.712500 0.625000 0.393750
0.831250 0.625000 0.393750
0.950000 0.625000 0.393750
0.000000 0.750000 0.393750
0.118750 0.750000 0.393750
0.237500 0.750000 0.393750
0.356250 0.750000 0.393750
0.475000 0.750000 0.393750
0.593750 0.750000 0.393750
0.712500 0.750000 0.393750
0.831250 0.750000 0.393750
0.950000 0.750000 0.393750
0.000000 0.875000 0.393750
0.118750 0.875000 0.393750
0.237500 0.875000 0.393750
0.356250 0.875000 0.393750
0.475000 0.875000 0.393750
0.593750 0.875000 0.393750
0.712500 0.875000 0.393750
0.831250 0.875000 0.393750
0.950000 0.875000 0.393750
0.000000 1.000000 0.393750
0.118750 1.000000 0.393750
0.237500 1.000000 0.393750
0.356250 1.000000 0.393750
0.475000 1.000000 0.393750
0.593750 1.000000 0.393750
0.712500 1.000000 0.393750
0.831250 1.000000 0.393750
0.950000 1.000000 0.393750
0.000000 0.000000 0.525000
0.118750 0.000000 0.525000
0.237500 0.000000 0.525000
0.356250 0.000000 0.525000
0.475000 0.000000 0.525000
0.593750 0.000000 0.525000
0.712500 0.000000 0.525000
0.831250 0.000000 0.525000
0.950000 0.000000 0.525000
0.000000 0.125000 0.525000
0.118750 0.125000 0.525000
0.237500 0.125000 0.525000
0.356250 0.125000 0.525000
0.475000 0.125000 0.525000
0.593750 0.125000 0.525000
0.712500 0.125000 0.525000
0.831250 0.125000 0.525000
0.950000 0.125000 0.525000
0.000000 0.250000 0.525000
0.118750 0.250000 0.525000
0.237500 0.250000 0.525000
0.356250 0.250000 0.525000
0.475000 0.250000 0.525000
0.593750 0.250000 0.525000
0.712500 0.250000 0.525000
0.831250 0.250000 0.525000
0.950000 0.250000 0.525000
0.000000 0.375000 0.525000
0.118750 0.375000 0.525000
0.237500 0.375000 0.525000
0.356250 0.375000 0.525000
0.475000 0.375000 0.525000
0.593750 0.375000 0.525000
0.712500 0.375000 0.525000
0.831250 0.375000 0.525000
0.950000 0.375000 0.525000
0.000000 0.500000 0.525000
0.118750 0.500000 0.525000
0.237500 0.500000 0.525000
0.356250 0.500000 0.525000
0.475000 0.500000 0.525000
0.593750 0.500000 0.525000
0.712500 0.500000 0.525000
0.831250 0.500000 0.525000
0.950000 0.500000 0.525000
0.000000 0.625000 0.525000
0.118750 0.625000 0.525000
0.237500 0.625000 0.525000
0.356250 0.625000 0.525000
0.475000 0.625000 0.525000
0.593750 0.625000 0.525000
0.712500 0.625000 0.525000
0.831250 0.625000 0.525000
0.950000 0.625000 0.525000
0.000000 0.750000 0.525000
0.118750 0.750000 0.525000
0.237500 0.750000 0.525000
0.356250 0.750000 0.525000
0.475000 0.750000 0.525000
0.593750 0.750000 0.525000
0.712500 0.750000 0.525000
0.831250 0.750000 0.525000
0.950000 0.750000 0.525000
0.000000 0.875000 0.525000
0.118750 0.875000 0.525000
0.237500 0.875000 0.525000
0.356250 0.875000 0.525000
0.475000 0.875000 0.525000
0.593750 0.875000 0.525000
0.712500 0.875000 0.525000
0.831250 0.875000 0.525000
0.950000 0.875000 0.525000
0.000000 1.000000 0.525000
0.118750 1.000000 0.525000
0.237500 1.000000 0.525000
0.356250 1.000000 0.525000
0.475000 1.000000 0.525000
0.593750 1.000000 0.525000
0.712500 1.000000 0.525000
0.831250 1.000000 0.525000
0.950000 1.000000 0.525000
0.000000 0.000000 0.656250
0.118750 0.000000 0.656250
0.237500 0.000000 0.656250
0.356250 0.000000 0.656250
0.475000 0.000000 0.656250
0.593750 0.000000 0.656250
0.712500 0.000000 0.656250
0.831250 0.000000 0.656250
0.950000 0.000000 0.656250
0.000000 0.125000 0.656250
0.118750 0.125000 0.656250
0.237500 0.125000 0.656250
0.356250 0.125000 0.656250
0.475000 0.125000 0.656250
0.593750 0.125000 0.656250
0.712500 0.125000 0.656250
0.831250 0.125000 0.656250
0.950000 0.125000 0.656250
0.000000 0.250000 0.656250
0.118750 0.250000 0.656250
0.237500 0.250000 0.656250
0.356250 0.250000 0.656250
0.475000 0.250000 0.656250
0.593750 0.250000 0.656250
0.712500 0.250000 0.656250
0.831250 0.250000 0.656250
0.950000 0.250000 0.656250
0.000000 0.375000 0.656250
0.118750 0.375000 0.656250
0.237500 0.375000 0.656250
0.356250 0.375000 0.656250
0.475000 0.375000 0.656250
0.593750 0.375000 0.656250
0.712500 0.375000 0.656250
0.831250 0.375000 0.656250
0.950000 0.375000 0.656250
0.000000 0.500000 0.656250
0.118750 0.500000 0.656250
0.237500 0.500000 0.656250
0.356250 0.500000 0.656250
0.475000 0.500000 0.656250
0.593750 0.500000 0.656250
0.712500 0.500000 0.656250
0.831250 0.500000 0.656250
0.950000 0.500000 0.656250
0.000000 0.625000 0.656250
0.118750 0.625000 0.656250
0.237500 0.625000 0.656250
0.356250 0.625000 0.656250
0.475000 0.625000 0.656250
0.593750 0.625000 0.656250
0.712500 0.625000 0.656250
0.831250 0.625000 0.656250
0.950000 0.625000 0.656250
0.000000 0.750000 0.656250
0.118750 0.750000 0.656250
0.237500 0.750000 0.656250
0.356250 0.750000 0.656250
0.475000 0.750000 0.656250
0.593750 0.750000 0.656250
0.712500 0.750000 0.656250
0.831250 0.750000 0.656250
0.950000 0.750000 0.656250
0.000000 0.875000 0.656250
0.118750 0.875000 0.656250
0.237500 0.875000 0.656250
0.356250 0.875000 0.656250
0.475000 0.875000 0.656250
0.593750 0.875000 0.656250
0.712500 0.875000 0.656250
0.831250 0.875000 0.656250
0.950000 0.875000 0.656250
0.000000 1.000000 0.656250
0.118750 1.000000 0.656250
0.237500 1.000000 0.656250
0.356250 1.000000 0.656250
0.475000 1.000000 0.656250
0.593750 1.000000 0.656250
0.712500 1.000000 0.656250
0.831250 1.000000 0.656250
0.950000 1.000000 0.656250
0.000000 0.000000 0.787500
0.118750 0.000000 0.787500
0.237500 0.000000 0.787500
0.356250 0.000000 0.787500
0.475000 0.000000 0.787500
0.593750 0.000000 0.787500
0.712500 0.000000 0.787500
0.831250 0.000000 0.787500
0.950000 0.000000 0.787500
0.000000 0.125000 0.787500
0.118750 0.125000 0.787500
0.237500 0.125000 0.787500
0.356250 0.125000 0.787500
0.475000 0.125000 0.787500
0.593750 0.125000 0.787500
0.712500 0.125000 0.787500
0.831250 0.125000 0.787500
0.950000 0.125000 0.787500
0.000000 0.250000 0.787500
0.118750 0.250000 0.787500
0.237500 0.250000 0.787500
0.356250 0.250000 0.787500
0.475000 0.250000 0.787500
0.593750 0.250000 0.787500
0.712500 0.250000 0.787500
0.831250 0.250000 0.787500
0.950000 0.250000 0.787500
0.000000 0.375000 0.787500
0.118750 0.375000 0.787500
0.237500 0.375000 0.787500
0.356250 0.375000 0.787500
0.475000 0.375000 0.787500
0.593750 0.375000 0.787500
0.712500 0.375000 0.787500
0.831250 0.375000 0.787500
0.950000 0.375000 0.787500
0.000000 0.500000 0.787500
0.118750 0.500000 0.787500
0.237500 0.500000 0.787500
0.356250 0.500000 0.787500
0.475000 0.500000 0.787500
0.593750 0.500000 0.787500
0.712500 0.500000 0.787500
0.831250 0.500000 0.787500
0.950000 0.500000 0.787500
0.000000 0.625000 0.787500
0.118750 0.625000 0.787500
0.237500 0.625000 0.787500
0.356250 0.625000 0.787500
0.475000 0.625000 0.787500
0.593750 0.625000 0.787500
0.712500 0.625000 0.787500
0.831250 0.625000 0.787500
0.950000 0.625000 0.787500
0.000000 0.750000 0.787500
0.118750 0.750000 0.787500
0.237500 0.750000 0.787500
0.356250 0.750000 0.787500
0.475000 0.750000 0.787500
0.593750 0.750000 0.787500
0.712500 0.750000 0.787500
0.831250 0.750000 0.787500
0.950000 0.750000 0.787500
0.000000 0.875000 0.787500
0.118750 0.875000 0.787500
0.237500 0.875000 0.787500
0.356250 0.875000 0.787500
0.475000 0.875000 0.787500
0.593750 0.875000 0.787500
0.712500 0.875000 0.787500
0.831250 0.875000 0.787500
0.950000 0.875000 0.787500
0.000000 1.000000 0.787500
0.118750 1.000000 0.787500
0.237500 1.000000 0.787500
0.356250 1.000000 0.787500
0.475000 1.000000 0.787500
0.593750 1.000000 0.787500
0.712500 1.000000 0.787500
0.831250 1.000000 0.787500
0.950000 1.000000 0.787500
0.000000 0.000000 0.918750
0.118750 0.000000 0.918750
0.237500 0.000000 0.918750
0.356250 0.000000 0.918750
0.475000 0.000000 0.918750
0.593750 0.000000 0.918750
0.712500 0.000000 0.918750
0.831250 0.000000 0.918750
0.950000 0.000000 0.918750
0.000000 0.125000 0.918750
0.118750 0.125000 0.918750
0.237500 0.125000 0.918750
0.356250 0.125000 0.918750
0.475000 0.125000 0.918750
0.593750 0.125000 0.918750
0.712500 0.125000 0.918750
0.831250 0.125000 0.918750
0.950000 0.125000 0.918750
0.000000 0.250000 0.918750
0.118750 0.250000 0.918750
0.237500 0.250000 0.918750
0.356250 0.250000 0.918750
0.475000 0.250000 0.918750
0.593750 0.250000 0.918750
0.712500 0.250000 0.918750
0.831250 0.250000 0.918750
0.950000 0.250000 0.918750
0.000000 0.375000 0.918750
0.118750 0.375000 0.918750
0.237500 0.375000 0.918750
0.356250 0.375000 0.918750
0.475000 0.375000 0.918750
0.593750 0.375000 0.918750
0.712500 0.375000 0.918750
0.831250 0.375000 0.918750
0.950000 0.375000 0.918750
0.000000 0.500000 0.918750
0.118750 0.500000 0.918750
0.237500 0.500000 0.918750
0.356250 0.500000 0.918750
0.475000 0.500000 0.918750
0.593750 0.500000 0.918750
0.712500 0.500000 0.918750
0.831250 0.500000 0.918750
0.950000 0.500000 0.918750
0.000000 0.625000 0.918750
0.118750 0.625000 0.918750
0.237500 0.625000 0.918750
0.356250 0.625000 0.918750
0.475000 0.625000 0.918750
0.593750 0.625000 0.918750
0.712500 0.625000 0.918750
0.831250 0.625000 0.918750
0.950000 0.625000 0.918750
0.000000 0.750000 0.918750
0.118750 0.750000 0.918750
0.237500 0.750000 0.918750
0.356250 0.750000 0.918750
0.475000 0.750000 0.918750
0.593750 0.750000 0.918750
0.712500 0.750000 0.918750
0.831250 0.750000 0.918750
0.950000 0.750000 0.918750
0.000000 0.875000 0.918750
0.118750 0.875000 0.918750
0.237500 0.875000 0.918750
0.356250 0.875000 0.918750
0.475000 0.875000 0.918750
0.593750 0.875000 0.918750
0.712500 0.875000 0.918750
0.831250 0.875000 0.918750
0.950000 0.875000 0.918750
0.000000 1.000000 0.918750
0.118750 1.000000 0.918750
0.237500 1.000000 0.918750
0.356250 1.000000 0.918750
0.475000 1.000000 0.918750
0.593750 1.000000 0.918750
0.712500 1.000000 0.918750
0.831250 1.000000 0.918750
0.950000 1.000000 0.918750
0.000000 0.000000 1.000000
0.118750 0.000000 1.000000
0.237500 0.000000 1.000000
0.356250 0.000000 1.000000
0.475000 0.000000 1.000000
0.593750 0.000000 1.000000
0.712500 0.000000 1.000000
0.831250 0.000000 1.000000
0.950000 0.000000 1.000000
0.000000 0.125000 1.000000
0.118750 0.125000 1.000000
0.237500 0.125000 1.000000
0.356250 0.125000 1.000000
0.475000 0.125000 1.000000
0.593750 0.125000 1.000000
0.712500 0.125000 1.000000
0.831250 0.125000 1.000000
0.950000 0.125000 1.000000
0.000000 0.250000 1.000000
0.118750 0.250000 1.000000
0.237500 0.250000 1.000000
0.356250 0.250000 1.000000
0.475000 0.250000 1.000000
0.593750 0.250000 1.000000
0.712500 0.250000 1.000000
0.831250 0.250000 1.000000
0.950000 0.250000 1.000000
0.000000 0.375000 1.000000
0.118750 0.375000 1.000000
0.237500 0.375000 1.000000
0.356250 0.375000 1.000000
0.475000 0.375000 1.000000
0.593750 0.375000 1.000000
0.712500 0.375000 1.000000
0.831250 0.375000 1.000000
0.950000 0.375000 1.000000
0.000000 0.500000 1.000000
0.118750 0.500000 1.000000
0.237500 0.500000 1.000000
0.356250 0.500000 1.000000
0.475000 0.500000 1.000000
0.593750 0.500000 1.000000
0.712500 0.500000 1.000000
0.831250 0.500000 1.000000
0.950000 0.500000 1.000000
0.000000 0.625000 1.000000
0.118750 0.625000 1.000000
0.237500 0.625000 1.000000
0.356250 0.625000 1.000000
0.475000 0.625000 1.000000
0.593750 0.625000 1.000000
0.712500 0.625000 1.000000
0.831250 0.625000 1.000000
0.950000 0.625000 1.000000
0.000000 0.750000 1.000000
0.118750 0.750000 1.000000
0.237500 0.750000 1.000000
0.356250 0.750000 1.000000
0.475000 0.750000 1.000000
0.593750 0.750000 1.000000
0.712500 0.750000 1.000000
0.831250 0.750000 1.000000
0.950000 0.750000 1.000000
0.000000 0.875000 1.000000
0.118750 0.875000 1.000000
0.237500 0.875000 1.000000
0.356250 0.875000 1.000000
0.475000 0.875000 1.000000
0.593750 0.875000 1.000000
0.712500 0.875000 1.000000
0.831250 0.875000 1.000000
0.950000 0.875000 1.000000
0.000000 1.000000 1.000000
0.118750 1.000000 1.000000
0.237500 1.000000 1.000000
0.356250 1.000000 1.000000
0.475000 1.000000 1.000000
0.593750 1.000000 1.000000
0.712500 1.000000 1.000000
0.831250 1.000000 1.000000
0.950000 1.000000 1.000000
