nodes/ApplyLUT/cold_tint.cube
TITLE "Cold Tint"
LUT_3D_SIZE 33
0.000000 0.000000 0.000000
0.029687 0.000000 0.000000
0.059375 0.000000 0.000000
0.089062 0.000000 0.000000
0.118750 0.000000 0.000000
0.148438 0.000000 0.000000
0.178125 0.000000 0.000000
0.207812 0.000000 0.000000
0.237500 0.000000 0.000000
0.267187 0.000000 0.000000
0.296875 0.000000 0.000000
0.326562 0.000000 0.000000
0.356250 0.000000 0.000000
0.385937 0.000000 0.000000
0.415625 0.000000 0.000000
0.445312 0.000000 0.000000
0.475000 0.000000 0.000000
0.504687 0.000000 0.000000
0.534375 0.000000 0.000000
0.564063 0.000000 0.000000
0.593750 0.000000 0.000000
0.623437 0.000000 0.000000
0.653125 0.000000 0.000000
0.682812 0.000000 0.000000
0.712500 0.000000 0.000000
0.742188 0.000000 0.000000
0.771875 0.000000 0.000000
0.801562 0.000000 0.000000
0.831250 0.000000 0.000000
0.860937 0.000000 0.000000
0.890625 0.000000 0.000000
0.920312 0.000000 0.000000
0.950000 0.000000 0.000000
0.000000 0.031250 0.000000
0.029687 0.031250 0.000000
0.059375 0.031250 0.000000
0.089062 0.031250 0.000000
0.118750 0.031250 0.000000
0.148438 0.031250 0.000000
0.178125 0.031250 0.000000
0.207812 0.031250 0.000000
0.237500 0.031250 0.000000
0.267187 0.031250 0.000000
0.296875 0.031250 0.000000
0.326562 0.031250 0.000000
0.356250 0.031250 0.000000
0.385937 0.031250 0.000000
0.415625 0.031250 0.000000
0.445312 0.031250 0.000000
0.475000 0.031250 0.000000
0.504687 0.031250 0.000000
0.534375 0.031250 0.000000
0.564063 0.031250 0.000000
0.593750 0.031250 0.000000
0.623437 0.031250 0.000000
0.653125 0.031250 0.000000
0.682812 0.031250 0.000000
0.712500 0.031250 0.000000
0.742188 0.031250 0.000000
0.771875 0.031250 0.000000
0.801562 0.031250 0.000000
0.831250 0.031250 0.000000
0.860937 0.031250 0.000000
0.890625 0.031250 0.000000
0.920312 0.031250 0.000000
0.950000 0.031250 0.000000
0.000000 0.062500 0.000000
0.029687 0.062500 0.000000
0.059375 0.062500 0.000000
0.089062 0.062500 0.000000
0.118750 0.062500 0.000000
0.148438 0.062500 0.000000
0.178125 0.062500 0.000000
0.207812 0.062500 0.000000
0.237500 0.062500 0.000000
0.267187 0.062500 0.000000
0.296875 0.062500 0.000000
0.326562 0.062500 0.000000
0.356250 0.062500 0.000000
0.385937 0.062500 0.000000
0.415625 0.062500 0.000000
0.445312 0.062500 0.000000
0.475000 0.062500 0.000000
0.504687 0.062500 0.000000
0.534375 0.062500 0.000000
0.564063 0.062500 0.000000
0.593750 0.062500 0.000000
0.623437 0.062500 0.000000
0.653125 0.062500 0.000000
0.682812 0.062500 0.000000
0.712500 0.062500 0.000000
0.742188 0.062500 0.000000
0.771875 0.062500 0.000000
0.801562 0.062500 0.000000
0.831250 0.062500 0.000000
0.860937 0.062500 0.000000
0.890625 0.062500 0.000000
0.920312 0.062500 0.000000
0.950000 0.062500 0.000000
0.000000 0.093750 0.000000
0.029687 0.093750 0.000000
0.059375 0.093750 0.000000
0.089062 0.093750 0.000000
0.118750 0.093750 0.000000
0.148438 0.093750 0.000000
0.178125 0.093750 0.000000
0.207812 0.093750 0.000000
0.237500 0.093750 0.000000
0.267187 0.093750 0.000000
0.296875 0.093750 0.000000
0.326562 0.093750 0.000000
0.356250 0.093750 0.000000
0.385937 0.093750 0.000000
0.415625 0.093750 0.000000
0.445312 0.093750 0.000000
0.475000 0.093750 0.000000
0.504687 0.093750 0.000000
0.534375 0.093750 0.000000
0.564063 0.093750 0.000000
0.593750 0.093750 0.000000
0.623437 0.093750 0.000000
0.653125 0.093750 0.000000
0.682812 0.093750 0.000000
0.712500 0.093750 0.000000
0.742188 0.093750 0.000000
0.771875 0.093750 0.000000
0.801562 0.093750 0.000000
0.831250 0.093750 0.000000
0.860937 0.093750 0.000000
0.890625 0.093750 0.000000
0.920312 0.093750 0.000000
0.950000 0.093750 0.000000
0.000000 0.125000 0.000000
0.029687 0.125000 0.000000
0.059375 0.125000 0.000000
0.089062 0.125000 0.000000
0.118750 0.125000 0.000000
0.148438 0.125000 0.000000
0.178125 0.125000 0.000000
0.207812 0.125000 0.000000
0.237500 0.125000 0.000000
0.267187 0.125000 0.000000
0.296875 0.125000 0.000000
0.326562 0.125000 0.000000
0.356250 0.125000 0.000000
0.385937 0.125000 0.000000
0.415625 0.125000 0.000000
0.445312 0.125000 0.000000
0.475000 0.125000 0.000000
0.504687 0.125000 0.000000
0.534375 0.125000 0.000000
0.564063 0.125000 0.000000
0.593750 0.125000 0.000000
0.623437 0.125000 0.000000
0.653125 0.125000 0.000000
0.682812 0.125000 0.000000
0.712500 0.125000 0.000000
0.742188 0.125000 0.000000
0.771875 0.125000 0.000000
0.801562 0.125000 0.000000
0.831250 0.125000 0.000000
0.860937 0.125000 0.000000
0.890625 0.125000 0.000000
0.920312 0.125000 0.000000
0.950000 0.125000 0.000000
0.000000 0.156250 0.000000
0.029687 0.156250 0.000000
0.059375 0.156250 0.000000
0.089062 0.156250 0.000000
0.118750 0.156250 0.000000
0.148438 0.156250 0.000000
0.178125 0.156250 0.000000
0.207812 0.156250 0.000000
0.237500 0.156250 0.000000
0.267187 0.156250 0.000000
0.296875 0.156250 0.000000
0.326562 0.156250 0.000000
0.356250 0.156250 0.000000
0.385937 0.156250 0.000000
0.415625 0.156250 0.000000
0.445312 0.156250 0.000000
0.475000 0.156250 0.000000
0.504687 0.156250 0.000000
0.534375 0.156250 0.000000
0.564063 0.156250 0.000000
0.593750 0.156250 0.000000
0.623437 0.156250 0.000000
0.653125 0.156250 0.000000
0.682812 0.156250 0.000000
0.712500 0.156250 0.000000
0.742188 0.156250 0.000000
0.771875 0.156250 0.000000
0.801562 0.156250 0.000000
0.831250 0.156250 0.000000
0.860937 0.156250 0.000000
0.890625 0.156250 0.000000
0.920312 0.156250 0.000000
0.950000 0.156250 0.000000
0.000000 0.187500 0.000000
0.029687 0.187500 0.000000
0.059375 0.187500 0.000000
0.089062 0.187500 0.000000
0.118750 0.187500 0.000000
0.148438 0.187500 0.000000
0.178125 0.187500 0.000000
0.207812 0.187500 0.000000
0.237500 0.187500 0.000000
0.267187 0.187500 0.000000
0.296875 0.187500 0.000000
0.326562 0.187500 0.000000
0.356250 0.187500 0.000000
0.385937 0.187500 0.000000
0.415625 0.187500 0.000000
0.445312 0.187500 0.000000
0.475000 0.187500 0.000000
0.504687 0.187500 0.000000
0.534375 0.187500 0.000000
0.564063 0.187500 0.000000
0.593750 0.187500 0.000000
0.623437 0.187500 0.000000
0.653125 0.187500 0.000000
0.682812 0.187500 0.000000
0.712500 0.187500 0.000000
0.742188 0.187500 0.000000
0.771875 0.187500 0.000000
0.801562 0.187500 0.000000
0.831250 0.187500 0.000000
0.860937 0.187500 0.000000
0.890625 0.187500 0.000000
0.920312 0.187500 0.000000
0.950000 0.187500 0.000000
0.000000 0.218750 0.000000
0.029687 0.218750 0.000000
0.059375 0.218750 0.000000
0.089062 0.218750 0.000000
0.118750 0.218750 0.000000
0.148438 0.218750 0.000000
0.178125 0.218750 0.000000
0.207812 0.218750 0.000000
0.237500 0.218750 0.000000
0.267187 0.218750 0.000000
0.296875 0.218750 0.000000
0.326562 0.218750 0.000000
0.356250 0.218750 0.000000
0.385937 0.218750 0.000000
0.415625 0.218750 0.000000
0.445312 0.218750 0.000000
0.475000 0.218750 0.000000
0.504687 0.218750 0.000000
0.534375 0.218750 0.000000
0.564063 0.218750 0.000000
0.593750 0.218750 0.000000
0.623437 0.218750 0.000000
0.653125 0.218750 0.000000
0.682812 0.218750 0.000000
0.712500 0.218750 0.000000
0.742188 0.218750 0.000000
0.771875 0.218750 0.000000
0.801562 0.218750 0.000000
0.831250 0.218750 0.000000
0.860937 0.218750 0.000000
0.890625 0.218750 0.000000
0.920312 0.218750 0.000000
0.950000 0.218750 0.000000
0.000000 0.250000 0.000000
0.029687 0.250000 0.000000
0.059375 0.250000 0.000000
0.089062 0.250000 0.000000
0.118750 0.250000 0.000000
0.148438 0.250000 0.000000
0.178125 0.250000 0.000000
0.207812 0.250000 0.000000
0.237500 0.250000 0.000000
0.267187 0.250000 0.000000
0.296875 0.250000 0.000000
0.326562 0.250000 0.000000
0.356250 0.250000 0.000000
0.385937 0.250000 0.000000
0.415625 0.250000 0.000000
0.445312 0.250000 0.000000
0.475000 0.250000 0.000000
0.504687 0.250000 0.000000
0.534375 0.250000 0.000000
0.564063 0.250000 0.000000
0.593750 0.250000 0.000000
0.623437 0.250000 0.000000
0.653125 0.250000 0.000000
0.682812 0.250000 0.000000
0.712500 0.250000 0.000000
0.742188 0.250000 0.000000
0.771875 0.250000 0.000000
0.801562 0.250000 0.000000
0.831250 0.250000 0.000000
0.860937 0.250000 0.000000
0.890625 0.250000 0.000000
0.920312 0.250000 0.000000
0.950000 0.250000 0.000000
0.000000 0.281250 0.000000
0.029687 0.281250 0.000000
0.059375 0.281250 0.000000
0.089062 0.281250 0.000000
0.118750 0.281250 0.000000
0.148438 0.281250 0.000000
0.178125 0.281250 0.000000
0.207812 0.281250 0.000000
0.237500 0.281250 0.000000
0.267187 0.281250 0.000000
0.296875 0.281250 0.000000
0.326562 0.281250 0.000000
0.356250 0.281250 0.000000
0.385937 0.281250 0.000000
0.415625 0.281250 0.000000
0.445312 0.281250 0.000000
0.475000 0.281250 0.000000
0.504687 0.281250 0.000000
0.534375 0.281250 0.000000
0.564063 0.281250 0.000000
0.593750 0.281250 0.000000
0.623437 0.281250 0.000000
0.653125 0.281250 0.000000
0.682812 0.281250 0.000000
0.712500 0.281250 0.000000
0.742188 0.281250 0.000000
0.771875 0.281250 0.000000
0.801562 0.281250 0.000000
0.831250 0.281250 0.000000
0.860937 0.281250 0.000000
0.890625 0.281250 0.000000
0.920312 0.281250 0.000000
0.950000 0.281250 0.000000
0.000000 0.312500 0.000000
0.029687 0.312500 0.000000
0.059375 0.312500 0.000000
0.089062 0.312500 0.000000
0.118750 0.312500 0.000000
0.148438 0.312500 0.000000
0.178125 0.312500 0.000000
0.207812 0.312500 0.000000
0.237500 0.312500 0.000000
0.267187 0.312500 0.000000
0.296875 0.312500 0.000000
0.326562 0.312500 0.000000
0.356250 0.312500 0.000000
0.385937 0.312500 0.000000
0.415625 0.312500 0.000000
0.445312 0.312500 0.000000
0.475000 0.312500 0.000000
0.504687 0.312500 0.000000
0.534375 0.312500 0.000000
0.564063 0.312500 0.000000
0.593750 0.312500 0.000000
0.623437 0.312500 0.000000
0.653125 0.312500 0.000000
0.682812 0.312500 0.000000
0.712500 0.312500 0.000000
0.742188 0.312500 0.000000
0.771875 0.312500 0.000000
0.801562 0.312500 0.000000
0.831250 0.312500 0.000000
0.860937 0.312500 0.000000
0.890625 0.312500 0.000000
0.920312 0.312500 0.000000
0.950000 0.312500 0.000000
0.000000 0.343750 0.000000
0.029687 0.343750 0.000000
0.059375 0.343750 0.000000
0.089062 0.343750 0.000000
0.118750 0.343750 0.000000
0.148438 0.343750 0.000000
0.178125 0.343750 0.000000
0.207812 0.343750 0.000000
0.237500 0.343750 0.000000
0.267187 0.343750 0.000000
0.296875 0.343750 0.000000
0.326562 0.343750 0.000000
0.356250 0.343750 0.000000
0.385937 0.343750 0.000000
0.415625 0.343750 0.000000
0.445312 0.343750 0.000000
0.475000 0.343750 0.000000
0.504687 0.343750 0.000000
0.534375 0.343750 0.000000
0.564063 0.343750 0.000000
0.593750 0.343750 0.000000
0.623437 0.343750 0.000000
0.653125 0.343750 0.000000
0.682812 0.343750 0.000000
0.712500 0.343750 0.000000
0.742188 0.343750 0.000000
0.771875 0.343750 0.000000
0.801562 0.343750 0.000000
0.831250 0.343750 0.000000
0.860937 0.343750 0.000000
0.890625 0.343750 0.000000
0.920312 0.343750 0.000000
0.950000 0.343750 0.000000
0.000000 0.375000 0.000000
0.029687 0.375000 0.000000
0.059375 0.375000 0.000000
0.089062 0.375000 0.000000
0.118750 0.375000 0.000000
0.148438 0.375000 0.000000
0.178125 0.375000 0.000000
0.207812 0.375000 0.000000
0.237500 0.375000 0.000000
0.267187 0.375000 0.000000
0.296875 0.375000 0.000000
0.326562 0.375000 0.000000
0.356250 0.375000 0.000000
0.385937 0.375000 0.000000
0.415625 0.375000 0.000000
0.445312 0.375000 0.000000
0.475000 0.375000 0.000000
0.504687 0.375000 0.000000
0.534375 0.375000 0.000000
0.564063 0.375000 0.000000
0.593750 0.375000 0.000000
0.623437 0.375000 0.000000
0.653125 0.375000 0.000000
0.682812 0.375000 0.000000
0.712500 0.375000 0.000000
0.742188 0.375000 0.000000
0.771875 0.375000 0.000000
0.801562 0.375000 0.000000
0.831250 0.375000 0.000000
0.860937 0.375000 0.000000
0.890625 0.375000 0.000000
0.920312 0.375000 0.000000
0.950000 0.375000 0.000000
0.000000 0.406250 0.000000
0.029687 0.406250 0.000000
0.059375 0.406250 0.000000
0.089062 0.406250 0.000000
0.118750 0.406250 0.000000
0.148438 0.406250 0.000000
0.178125 0.406250 0.000000
0.207812 0.406250 0.000000
0.237500 0.406250 0.000000
0.267187 0.406250 0.000000
0.296875 0.406250 0.000000
0.326562 0.406250 0.000000
0.356250 0.406250 0.000000
0.385937 0.406250 0.000000
0.415625 0.406250 0.000000
0.445312 0.406250 0.000000
0.475000 0.406250 0.000000
0.504687 0.406250 0.000000
0.534375 0.406250 0.000000
0.564063 0.406250 0.000000
0.593750 0.406250 0.000000
0.623437 0.406250 0.000000
0.653125 0.406250 0.000000
0.682812 0.406250 0.000000
0.712500 0.406250 0.000000
0.742188 0.406250 0.000000
0.771875 0.406250 0.000000
0.801562 0.406250 0.000000
0.831250 0.406250 0.000000
0.860937 0.406250 0.000000
0.890625 0.406250 0.000000
0.920312 0.406250 0.000000
0.950000 0.406250 0.000000
0.000000 0.437500 0.000000
0.029687 0.437500 0.000000
0.059375 0.437500 0.000000
0.089062 0.437500 0.000000
0.118750 0.437500 0.000000
0.148438 0.437500 0.000000
0.178125 0.437500 0.000000
0.207812 0.437500 0.000000
0.237500 0.437500 0.000000
0.267187 0.437500 0.000000
0.296875 0.437500 0.000000
0.326562 0.437500 0.000000
0.356250 0.437500 0.000000
0.385937 0.437500 0.000000
0.415625 0.437500 0.000000
0.445312 0.437500 0.000000
0.475000 0.437500 0.000000
0.504687 0.437500 0.000000
0.534375 0.437500 0.000000
0.564063 0.437500 0.000000
0.593750 0.437500 0.000000
0.623437 0.437500 0.000000
0.653125 0.437500 0.000000
0.682812 0.437500 0.000000
0.712500 0.437500 0.000000
0.742188 0.437500 0.000000
0.771875 0.437500 0.000000
0.801562 0.437500 0.000000
0.831250 0.437500 0.000000
0.860937 0.437500 0.000000
0.890625 0.437500 0.000000
0.920312 0.437500 0.000000
0.950000 0.437500 0.000000
0.000000 0.468750 0.000000
0.029687 0.468750 0.000000
0.059375 0.468750 0.000000
0.089062 0.468750 0.000000
0.118750 0.468750 0.000000
0.148438 0.468750 0.000000
0.178125 0.468750 0.000000
0.207812 0.468750 0.000000
0.237500 0.468750 0.000000
0.267187 0.468750 0.000000
0.296875 0.468750 0.000000
0.326562 0.468750 0.000000
0.356250 0.468750 0.000000
0.385937 0.468750 0.000000
0.415625 0.468750 0.000000
0.445312 0.468750 0.000000
0.475000 0.468750 0.000000
0.504687 0.468750 0.000000
0.534375 0.468750 0.000000
0.564063 0.468750 0.000000
0.593750 0.468750 0.000000
0.623437 0.468750 0.000000
0.653125 0.468750 0.000000
0.682812 0.468750 0.000000
0.712500 0.468750 0.000000
0.742188 0.468750 0.000000
0.771875 0.468750 0.000000
0.801562 0.468750 0.000000
0.831250 0.468750 0.000000
0.860937 0.468750 0.000000
0.890625 0.468750 0.000000
0.920312 0.468750 0.000000
0.950000 0.468750 0.000000
0.000000 0.500000 0.000000
0.029687 0.500000 0.000000
0.059375 0.500000 0.000000
0.089062 0.500000 0.000000
0.118750 0.500000 0.000000
0.148438 0.500000 0.000000
0.178125 0.500000 0.000000
0.207812 0.500000 0.000000
0.237500 0.500000 0.000000
0.267187 0.500000 0.000000
0.296875 0.500000 0.000000
0.326562 0.500000 0.000000
0.356250 0.500000 0.000000
0.385937 0.500000 0.000000
0.415625 0.500000 0.000000
0.445312 0.500000 0.000000
0.475000 0.500000 0.000000
0.504687 0.500000 0.000000
0.534375 0.500000 0.000000
0.564063 0.500000 0.000000
0.593750 0.500000 0.000000
0.623437 0.500000 0.000000
0.653125 0.500000 0.000000
0.682812 0.500000 0.000000
0.712500 0.500000 0.000000
0.742188 0.500000 0.000000
0.771875 0.500000 0.000000
0.801562 0.500000 0.000000
0.831250 0.500000 0.000000
0.860937 0.500000 0.000000
0.890625 0.500000 0.000000
0.920312 0.500000 0.000000
0.950000 0.500000 0.000000
0.000000 0.531250 0.000000
0.029687 0.531250 0.000000
0.059375 0.531250 0.000000
0.089062 0.531250 0.000000
0.118750 0.531250 0.000000
0.148438 0.531250 0.000000
0.178125 0.531250 0.000000
0.207812 0.531250 0.000000
0.237500 0.531250 0.000000
0.267187 0.531250 0.000000
0.296875 0.531250 0.000000
0.326562 0.531250 0.000000
0.356250 0.531250 0.000000
0.385937 0.531250 0.000000
0.415625 0.531250 0.000000
0.445312 0.531250 0.000000
0.475000 0.531250 0.000000
0.504687 0.531250 0.000000
0.534375 0.531250 0.000000
0.564063 0.531250 0.000000
0.593750 0.531250 0.000000
0.623437 0.531250 0.000000
0.653125 0.531250 0.000000
0.682812 0.531250 0.000000
0.712500 0.531250 0.000000
0.742188 0.531250 0.000000
0.771875 0.531250 0.000000
0.801562 0.531250 0.000000
0.831250 0.531250 0.000000
0.860937 0.531250 0.000000
0.890625 0.531250 0.000000
0.920312 0.531250 0.000000
0.950000 0.531250 0.000000
0.000000 0.562500 0.000000
0.029687 0.562500 0.000000
0.059375 0.562500 0.000000
0.089062 0.562500 0.000000
0.118750 0.562500 0.000000
0.148438 0.562500 0.000000
0.178125 0.562500 0.000000
0.207812 0.562500 0.000000
0.237500 0.562500 0.000000
0.267187 0.562500 0.000000
0.296875 0.562500 0.000000
0.326562 0.562500 0.000000
0.356250 0.562500 0.000000
0.385937 0.562500 0.000000
0.415625 0.562500 0.000000
0.445312 0.562500 0.000000
0.475000 0.562500 0.000000
0.504687 0.562500 0.000000
0.534375 0.562500 0.000000
0.564063 0.562500 0.000000
0.593750 0.562500 0.000000
0.623437 0.562500 0.000000
0.653125 0.562500 0.000000
0.682812 0.562500 0.000000
0.712500 0.562500 0.000000
0.742188 0.562500 0.000000
0.771875 0.562500 0.000000
0.801562 0.562500 0.000000
0.831250 0.562500 0.000000
0.860937 0.562500 0.000000
0.890625 0.562500 0.000000
0.920312 0.562500 0.000000
0.950000 0.562500 0.000000
0.000000 0.593750 0.000000
0.029687 0.593750 0.000000
0.059375 0.593750 0.000000
0.089062 0.593750 0.000000
0.118750 0.593750 0.000000
0.148438 0.593750 0.000000
0.178125 0.593750 0.000000
0.207812 0.593750 0.000000
0.237500 0.593750 0.000000
0.267187 0.593750 0.000000
0.296875 0.593750 0.000000
0.326562 0.593750 0.000000
0.356250 0.593750 0.000000
0.385937 0.593750 0.000000
0.415625 0.593750 0.000000
0.445312 0.593750 0.000000
0.475000 0.593750 0.000000
0.504687 0.593750 0.000000
0.534375 0.593750 0.000000
0.564063 0.593750 0.000000
0.593750 0.593750 0.000000
0.623437 0.593750 0.000000
0.653125 0.593750 0.000000
0.682812 0.593750 0.000000
0.712500 0.593750 0.000000
0.742188 0.593750 0.000000
0.771875 0.593750 0.000000
0.801562 0.593750 0.000000
0.831250 0.593750 0.000000
0.860937 0.593750 0.000000
0.890625 0.593750 0.000000
0.920312 0.593750 0.000000
0.950000 0.593750 0.000000
0.000000 0.625000 0.000000
0.029687 0.625000 0.000000
0.059375 0.625000 0.000000
0.089062 0.625000 0.000000
0.118750 0.625000 0.000000
0.148438 0.625000 0.000000
0.178125 0.625000 0.000000
0.207812 0.625000 0.000000
0.237500 0.625000 0.000000
0.267187 0.625000 0.000000
0.296875 0.625000 0.000000
0.326562 0.625000 0.000000
0.356250 0.625000 0.000000
0.385937 0.625000 0.000000
0.415625 0.625000 0.000000
0.445312 0.625000 0.000000
0.475000 0.625000 0.000000
0.504687 0.625000 0.000000
0.534375 0.625000 0.000000
0.564063 0.625000 0.000000
0.593750 0.625000 0.000000
0.623437 0.625000 0.000000
0.653125 0.625000 0.000000
0.682812 0.625000 0.000000
0.712500 0.625000 0.000000
0.742188 0.625000 0.000000
0.771875 0.625000 0.000000
0.801562 0.625000 0.000000
0.831250 0.625000 0.000000
0.860937 0.625000 0.000000
0.890625 0.625000 0.000000
0.920312 0.625000 0.000000
0.950000 0.625000 0.000000
0.000000 0.656250 0.000000
0.029687 0.656250 0.000000
0.059375 0.656250 0.000000
0.089062 0.656250 0.000000
0.118750 0.656250 0.000000
0.148438 0.656250 0.000000
0.178125 0.656250 0.000000
0.207812 0.656250 0.000000
0.237500 0.656250 0.000000
0.267187 0.656250 0.000000
0.296875 0.656250 0.000000
0.326562 0.656250 0.000000
0.356250 0.656250 0.000000
0.385937 0.656250 0.000000
0.415625 0.656250 0.000000
0.445312 0.656250 0.000000
0.475000 0.656250 0.000000
0.504687 0.656250 0.000000
0.534375 0.656250 0.000000
0.564063 0.656250 0.000000
0.593750 0.656250 0.000000
0.623437 0.656250 0.000000
0.653125 0.656250 0.000000
0.682812 0.656250 0.000000
0.712500 0.656250 0.000000
0.742188 0.656250 0.000000
0.771875 0.656250 0.000000
0.801562 0.656250 0.000000
0.831250 0.656250 0.000000
0.860937 0.656250 0.000000
0.890625 0.656250 0.000000
0.920312 0.656250 0.000000
0.950000 0.656250 0.000000
0.000000 0.687500 0.000000
0.029687 0.687500 0.000000
0.059375 0.687500 0.000000
0.089062 0.687500 0.000000
0.118750 0.687500 0.000000
0.148438 0.687500 0.000000
0.178125 0.687500 0.000000
0.207812 0.687500 0.000000
0.237500 0.687500 0.000000
0.267187 0.687500 0.000000
0.296875 0.687500 0.000000
0.326562 0.687500 0.000000
0.356250 0.687500 0.000000
0.385937 0.687500 0.000000
0.415625 0.687500 0.000000
0.445312 0.687500 0.000000
0.475000 0.687500 0.000000
0.504687 0.687500 0.000000
0.534375 0.687500 0.000000
0.564063 0.687500 0.000000
0.593750 0.687500 0.000000
0.623437 0.687500 0.000000
0.653125 0.687500 0.000000
0.682812 0.687500 0.000000
0.712500 0.687500 0.000000
0.742188 0.687500 0.000000
0.771875 0.687500 0.000000
0.801562 0.687500 0.000000
0.831250 0.687500 0.000000
0.860937 0.687500 0.000000
0.890625 0.687500 0.000000
0.920312 0.687500 0.000000
0.950000 0.687500 0.000000
0.000000 0.718750 0.000000
0.029687 0.718750 0.000000
0.059375 0.718750 0.000000
0.089062 0.718750 0.000000
0.118750 0.718750 0.000000
0.148438 0.718750 0.000000
0.178125 0.718750 0.000000
0.207812 0.718750 0.000000
0.237500 0.718750 0.000000
0.267187 0.718750 0.000000
0.296875 0.718750 0.000000
0.326562 0.718750 0.000000
0.356250 0.718750 0.000000
0.385937 0.718750 0.000000
0.415625 0.718750 0.000000
0.445312 0.718750 0.000000
0.475000 0.718750 0.000000
0.504687 0.718750 0.000000
0.534375 0.718750 0.000000
0.564063 0.718750 0.000000
0.593750 0.718750 0.000000
0.623437 0.718750 0.000000
0.653125 0.718750 0.000000
0.682812 0.718750 0.000000
0.712500 0.718750 0.000000
0.742188 0.718750 0.000000
0.771875 0.718750 0.000000
0.801562 0.718750 0.000000
0.831250 0.718750 0.000000
0.860937 0.718750 0.000000
0.890625 0.718750 0.000000
0.920312 0.718750 0.000000
0.950000 0.718750 0.000000
0.000000 0.750000 0.000000
0.029687 0.750000 0.000000
0.059375 0.750000 0.000000
0.089062 0.750000 0.000000
0.118750 0.750000 0.000000
0.148438 0.750000 0.000000
0.178125 0.750000 0.000000
0.207812 0.750000 0.000000
0.237500 0.750000 0.000000
0.267187 0.750000 0.000000
0.296875 0.750000 0.000000
0.326562 0.750000 0.000000
0.356250 0.750000 0.000000
0.385937 0.750000 0.000000
0.415625 0.750000 0.000000
0.445312 0.750000 0.000000
0.475000 0.750000 0.000000
0.504687 0.750000 0.000000
0.534375 0.750000 0.000000
0.564063 0.750000 0.000000
0.593750 0.750000 0.000000
0.623437 0.750000 0.000000
0.653125 0.750000 0.000000
0.682812 0.750000 0.000000
0.712500 0.750000 0.000000
0.742188 0.750000 0.000000
0.771875 0.750000 0.000000
0.801562 0.750000 0.000000
0.831250 0.750000 0.000000
0.860937 0.750000 0.000000
0.890625 0.750000 0.000000
0.920312 0.750000 0.000000
0.950000 0.750000 0.000000
0.000000 0.781250 0.000000
0.029687 0.781250 0.000000
0.059375 0.781250 0.000000
0.089062 0.781250 0.000000
0.118750 0.781250 0.000000
0.148438 0.781250 0.000000
0.178125 0.781250 0.000000
0.207812 0.781250 0.000000
0.237500 0.781250 0.000000
0.267187 0.781250 0.000000
0.296875 0.781250 0.000000
0.326562 0.781250 0.000000
0.356250 0.781250 0.000000
0.385937 0.781250 0.000000
0.415625 0.781250 0.000000
0.445312 0.781250 0.000000
0.475000 0.781250 0.000000
0.504687 0.781250 0.000000
0.534375 0.781250 0.000000
0.564063 0.781250 0.000000
0.593750 0.781250 0.000000
0.623437 0.781250 0.000000
0.653125 0.781250 0.000000
0.682812 0.781250 0.000000
0.712500 0.781250 0.000000
0.742188 0.781250 0.000000
0.771875 0.781250 0.000000
0.801562 0.781250 0.000000
0.831250 0.781250 0.000000
0.860937 0.781250 0.000000
0.890625 0.781250 0.000000
0.920312 0.781250 0.000000
0.950000 0.781250 0.000000
0.000000 0.812500 0.000000
0.029687 0.812500 0.000000
0.059375 0.812500 0.000000
0.089062 0.812500 0.000000
0.118750 0.812500 0.000000
0.148438 0.812500 0.000000
0.178125 0.812500 0.000000
0.207812 0.812500 0.000000
0.237500 0.812500 0.000000
0.267187 0.812500 0.000000
0.296875 0.812500 0.000000
0.326562 0.812500 0.000000
0.356250 0.812500 0.000000
0.385937 0.812500 0.000000
0.415625 0.812500 0.000000
0.445312 0.812500 0.000000
0.475000 0.812500 0.000000
0.504687 0.812500 0.000000
0.534375 0.812500 0.000000
0.564063 0.812500 0.000000
0.593750 0.812500 0.000000
0.623437 0.812500 0.000000
0.653125 0.812500 0.000000
0.682812 0.812500 0.000000
0.712500 0.812500 0.000000
0.742188 0.812500 0.000000
0.771875 0.812500 0.000000
0.801562 0.812500 0.000000
0.831250 0.812500 0.000000
