nodes/ApplyLUT/warm_tint.cube
TITLE "Warm Tint"
LUT_3D_SIZE 33
0.000000 0.000000 0.000000
0.032813 0.000000 0.000000
0.065625 0.000000 0.000000
0.098438 0.000000 0.000000
0.131250 0.000000 0.000000
0.164062 0.000000 0.000000
0.196875 0.000000 0.000000
0.229688 0.000000 0.000000
0.262500 0.000000 0.000000
0.295313 0.000000 0.000000
0.328125 0.000000 0.000000
0.360938 0.000000 0.000000
0.393750 0.000000 0.000000
0.426563 0.000000 0.000000
0.459375 0.000000 0.000000
0.492188 0.000000 0.000000
0.525000 0.000000 0.000000
0.557813 0.000000 0.000000
0.590625 0.000000 0.000000
0.623437 0.000000 0.000000
0.656250 0.000000 0.000000
0.689063 0.000000 0.000000
0.721875 0.000000 0.000000
0.754688 0.000000 0.000000
0.787500 0.000000 0.000000
0.820312 0.000000 0.000000
0.853125 0.000000 0.000000
0.885938 0.000000 0.000000
0.918750 0.000000 0.000000
0.951563 0.000000 0.000000
0.984375 0.000000 0.000000
1.000000 0.000000 0.000000
1.000000 0.000000 0.000000
0.000000 0.031250 0.000000
0.032813 0.031250 0.000000
0.065625 0.031250 0.000000
0.098438 0.031250 0.000000
0.131250 0.031250 0.000000
0.164062 0.031250 0.000000
0.196875 0.031250 0.000000
0.229688 0.031250 0.000000
0.262500 0.031250 0.000000
0.295313 0.031250 0.000000
0.328125 0.031250 0.000000
0.360938 0.031250 0.000000
0.393750 0.031250 0.000000
0.426563 0.031250 0.000000
0.459375 0.031250 0.000000
0.492188 0.031250 0.000000
0.525000 0.031250 0.000000
0.557813 0.031250 0.000000
0.590625 0.031250 0.000000
0.623437 0.031250 0.000000
0.656250 0.031250 0.000000
0.689063 0.031250 0.000000
0.721875 0.031250 0.000000
0.754688 0.031250 0.000000
0.787500 0.031250 0.000000
0.820312 0.031250 0.000000
0.853125 0.031250 0.000000
0.885938 0.031250 0.000000
0.918750 0.031250 0.000000
0.951563 0.031250 0.000000
0.984375 0.031250 0.000000
1.000000 0.031250 0.000000
1.000000 0.031250 0.000000
0.000000 0.062500 0.000000
0.032813 0.062500 0.000000
0.065625 0.062500 0.000000
0.098438 0.062500 0.000000
0.131250 0.062500 0.000000
0.164062 0.062500 0.000000
0.196875 0.062500 0.000000
0.229688 0.062500 0.000000
0.262500 0.062500 0.000000
0.295313 0.062500 0.000000
0.328125 0.062500 0.000000
0.360938 0.062500 0.000000
0.393750 0.062500 0.000000
0.426563 0.062500 0.000000
0.459375 0.062500 0.000000
0.492188 0.062500 0.000000
0.525000 0.062500 0.000000
0.557813 0.062500 0.000000
0.590625 0.062500 0.000000
0.623437 0.062500 0.000000
0.656250 0.062500 0.000000
0.689063 0.062500 0.000000
0.721875 0.062500 0.000000
0.754688 0.062500 0.000000
0.787500 0.062500 0.000000
0.820312 0.062500 0.000000
0.853125 0.062500 0.000000
0.885938 0.062500 0.000000
0.918750 0.062500 0.000000
0.951563 0.062500 0.000000
0.984375 0.062500 0.000000
1.000000 0.062500 0.000000
1.000000 0.062500 0.000000
0.000000 0.093750 0.000000
0.032813 0.093750 0.000000
0.065625 0.093750 0.000000
0.098438 0.093750 0.000000
0.131250 0.093750 0.000000
0.164062 0.093750 0.000000
0.196875 0.093750 0.000000
0.229688 0.093750 0.000000
0.262500 0.093750 0.000000
0.295313 0.093750 0.000000
0.328125 0.093750 0.000000
0.360938 0.093750 0.000000
0.393750 0.093750 0.000000
0.426563 0.093750 0.000000
0.459375 0.093750 0.000000
0.492188 0.093750 0.000000
0.525000 0.093750 0.000000
0.557813 0.093750 0.000000
0.590625 0.093750 0.000000
0.623437 0.093750 0.000000
0.656250 0.093750 0.000000
0.689063 0.093750 0.000000
0.721875 0.093750 0.000000
0.754688 0.093750 0.000000
0.787500 0.093750 0.000000
0.820312 0.093750 0.000000
0.853125 0.093750 0.000000
0.885938 0.093750 0.000000
0.918750 0.093750 0.000000
0.951563 0.093750 0.000000
0.984375 0.093750 0.000000
1.000000 0.093750 0.000000
1.000000 0.093750 0.000000
0.000000 0.125000 0.000000
0.032813 0.125000 0.000000
0.065625 0.125000 0.000000
0.098438 0.125000 0.000000
0.131250 0.125000 0.000000
0.164062 0.125000 0.000000
0.196875 0.125000 0.000000
0.229688 0.125000 0.000000
0.262500 0.125000 0.000000
0.295313 0.125000 0.000000
0.328125 0.125000 0.000000
0.360938 0.125000 0.000000
0.393750 0.125000 0.000000
0.426563 0.125000 0.000000
0.459375 0.125000 0.000000
0.492188 0.125000 0.000000
0.525000 0.125000 0.000000
0.557813 0.125000 0.000000
0.590625 0.125000 0.000000
0.623437 0.125000 0.000000
0.656250 0.125000 0.000000
0.689063 0.125000 0.000000
0.721875 0.125000 0.000000
0.754688 0.125000 0.000000
0.787500 0.125000 0.000000
0.820312 0.125000 0.000000
0.853125 0.125000 0.000000
0.885938 0.125000 0.000000
0.918750 0.125000 0.000000
0.951563 0.125000 0.000000
0.984375 0.125000 0.000000
1.000000 0.125000 0.000000
1.000000 0.125000 0.000000
0.000000 0.156250 0.000000
0.032813 0.156250 0.000000
0.065625 0.156250 0.000000
0.098438 0.156250 0.000000
0.131250 0.156250 0.000000
0.164062 0.156250 0.000000
0.196875 0.156250 0.000000
0.229688 0.156250 0.000000
0.262500 0.156250 0.000000
0.295313 0.156250 0.000000
0.328125 0.156250 0.000000
0.360938 0.156250 0.000000
0.393750 0.156250 0.000000
0.426563 0.156250 0.000000
0.459375 0.156250 0.000000
0.492188 0.156250 0.000000
0.525000 0.156250 0.000000
0.557813 0.156250 0.000000
0.590625 0.156250 0.000000
0.623437 0.156250 0.000000
0.656250 0.156250 0.000000
0.689063 0.156250 0.000000
0.721875 0.156250 0.000000
0.754688 0.156250 0.000000
0.787500 0.156250 0.000000
0.820312 0.156250 0.000000
0.853125 0.156250 0.000000
0.885938 0.156250 0.000000
0.918750 0.156250 0.000000
0.951563 0.156250 0.000000
0.984375 0.156250 0.000000
1.000000 0.156250 0.000000
1.000000 0.156250 0.000000
0.000000 0.187500 0.000000
0.032813 0.187500 0.000000
0.065625 0.187500 0.000000
0.098438 0.187500 0.000000
0.131250 0.187500 0.000000
0.164062 0.187500 0.000000
0.196875 0.187500 0.000000
0.229688 0.187500 0.000000
0.262500 0.187500 0.000000
0.295313 0.187500 0.000000
0.328125 0.187500 0.000000
0.360938 0.187500 0.000000
0.393750 0.187500 0.000000
0.426563 0.187500 0.000000
0.459375 0.187500 0.000000
0.492188 0.187500 0.000000
0.525000 0.187500 0.000000
0.557813 0.187500 0.000000
0.590625 0.187500 0.000000
0.623437 0.187500 0.000000
0.656250 0.187500 0.000000
0.689063 0.187500 0.000000
0.721875 0.187500 0.000000
0.754688 0.187500 0.000000
0.787500 0.187500 0.000000
0.820312 0.187500 0.000000
0.853125 0.187500 0.000000
0.885938 0.187500 0.000000
0.918750 0.187500 0.000000
0.951563 0.187500 0.000000
0.984375 0.187500 0.000000
1.000000 0.187500 0.000000
1.000000 0.187500 0.000000
0.000000 0.218750 0.000000
0.032813 0.218750 0.000000
0.065625 0.218750 0.000000
0.098438 0.218750 0.000000
0.131250 0.218750 0.000000
0.164062 0.218750 0.000000
0.196875 0.218750 0.000000
0.229688 0.218750 0.000000
0.262500 0.218750 0.000000
0.295313 0.218750 0.000000
0.328125 0.218750 0.000000
0.360938 0.218750 0.000000
0.393750 0.218750 0.000000
0.426563 0.218750 0.000000
0.459375 0.218750 0.000000
0.492188 0.218750 0.000000
0.525000 0.218750 0.000000
0.557813 0.218750 0.000000
0.590625 0.218750 0.000000
0.623437 0.218750 0.000000
0.656250 0.218750 0.000000
0.689063 0.218750 0.000000
0.721875 0.218750 0.000000
0.754688 0.218750 0.000000
0.787500 0.218750 0.000000
0.820312 0.218750 0.000000
0.853125 0.218750 0.000000
0.885938 0.218750 0.000000
0.918750 0.218750 0.000000
0.951563 0.218750 0.000000
0.984375 0.218750 0.000000
1.000000 0.218750 0.000000
1.000000 0.218750 0.000000
0.000000 0.250000 0.000000
0.032813 0.250000 0.000000
0.065625 0.250000 0.000000
0.098438 0.250000 0.000000
0.131250 0.250000 0.000000
0.164062 0.250000 0.000000
0.196875 0.250000 0.000000
0.229688 0.250000 0.000000
0.262500 0.250000 0.000000
0.295313 0.250000 0.000000
0.328125 0.250000 0.000000
0.360938 0.250000 0.000000
0.393750 0.250000 0.000000
0.426563 0.250000 0.000000
0.459375 0.250000 0.000000
0.492188 0.250000 0.000000
0.525000 0.250000 0.000000
0.557813 0.250000 0.000000
0.590625 0.250000 0.000000
0.623437 0.250000 0.000000
0.656250 0.250000 0.000000
0.689063 0.250000 0.000000
0.721875 0.250000 0.000000
0.754688 0.250000 0.000000
0.787500 0.250000 0.000000
0.820312 0.250000 0.000000
0.853125 0.250000 0.000000
0.885938 0.250000 0.000000
0.918750 0.250000 0.000000
0.951563 0.250000 0.000000
0.984375 0.250000 0.000000
1.000000 0.250000 0.000000
1.000000 0.250000 0.000000
0.000000 0.281250 0.000000
0.032813 0.281250 0.000000
0.065625 0.281250 0.000000
0.098438 0.281250 0.000000
0.131250 0.281250 0.000000
0.164062 0.281250 0.000000
0.196875 0.281250 0.000000
0.229688 0.281250 0.000000
0.262500 0.281250 0.000000
0.295313 0.281250 0.000000
0.328125 0.281250 0.000000
0.360938 0.281250 0.000000
0.393750 0.281250 0.000000
0.426563 0.281250 0.000000
0.459375 0.281250 0.000000
0.492188 0.281250 0.000000
0.525000 0.281250 0.000000
0.557813 0.281250 0.000000
0.590625 0.281250 0.000000
0.623437 0.281250 0.000000
0.656250 0.281250 0.000000
0.689063 0.281250 0.000000
0.721875 0.281250 0.000000
0.754688 0.281250 0.000000
0.787500 0.281250 0.000000
0.820312 0.281250 0.000000
0.853125 0.281250 0.000000
0.885938 0.281250 0.000000
0.918750 0.281250 0.000000
0.951563 0.281250 0.000000
0.984375 0.281250 0.000000
1.000000 0.281250 0.000000
1.000000 0.281250 0.000000
0.000000 0.312500 0.000000
0.032813 0.312500 0.000000
0.065625 0.312500 0.000000
0.098438 0.312500 0.000000
0.131250 0.312500 0.000000
0.164062 0.312500 0.000000
0.196875 0.312500 0.000000
0.229688 0.312500 0.000000
0.262500 0.312500 0.000000
0.295313 0.312500 0.000000
0.328125 0.312500 0.000000
0.360938 0.312500 0.000000
0.393750 0.312500 0.000000
0.426563 0.312500 0.000000
0.459375 0.312500 0.000000
0.492188 0.312500 0.000000
0.525000 0.312500 0.000000
0.557813 0.312500 0.000000
0.590625 0.312500 0.000000
0.623437 0.312500 0.000000
0.656250 0.312500 0.000000
0.689063 0.312500 0.000000
0.721875 0.312500 0.000000
0.754688 0.312500 0.000000
0.787500 0.312500 0.000000
0.820312 0.312500 0.000000
0.853125 0.312500 0.000000
0.885938 0.312500 0.000000
0.918750 0.312500 0.000000
0.951563 0.312500 0.000000
0.984375 0.312500 0.000000
1.000000 0.312500 0.000000
1.000000 0.312500 0.000000
0.000000 0.343750 0.000000
0.032813 0.343750 0.000000
0.065625 0.343750 0.000000
0.098438 0.343750 0.000000
0.131250 0.343750 0.000000
0.164062 0.343750 0.000000
0.196875 0.343750 0.000000
0.229688 0.343750 0.000000
0.262500 0.343750 0.000000
0.295313 0.343750 0.000000
0.328125 0.343750 0.000000
0.360938 0.343750 0.000000
0.393750 0.343750 0.000000
0.426563 0.343750 0.000000
0.459375 0.343750 0.000000
0.492188 0.343750 0.000000
0.525000 0.343750 0.000000
0.557813 0.343750 0.000000
0.590625 0.343750 0.000000
0.623437 0.343750 0.000000
0.656250 0.343750 0.000000
0.689063 0.343750 0.000000
0.721875 0.343750 0.000000
0.754688 0.343750 0.000000
0.787500 0.343750 0.000000
0.820312 0.343750 0.000000
0.853125 0.343750 0.000000
0.885938 0.343750 0.000000
0.918750 0.343750 0.000000
0.951563 0.343750 0.000000
0.984375 0.343750 0.000000
1.000000 0.343750 0.000000
1.000000 0.343750 0.000000
0.000000 0.375000 0.000000
0.032813 0.375000 0.000000
0.065625 0.375000 0.000000
0.098438 0.375000 0.000000
0.131250 0.375000 0.000000
0.164062 0.375000 0.000000
0.196875 0.375000 0.000000
0.229688 0.375000 0.000000
0.262500 0.375000 0.000000
0.295313 0.375000 0.000000
0.328125 0.375000 0.000000
0.360938 0.375000 0.000000
0.393750 0.375000 0.000000
0.426563 0.375000 0.000000
0.459375 0.375000 0.000000
0.492188 0.375000 0.000000
0.525000 0.375000 0.000000
0.557813 0.375000 0.000000
0.590625 0.375000 0.000000
0.623437 0.375000 0.000000
0.656250 0.375000 0.000000
0.689063 0.375000 0.000000
0.721875 0.375000 0.000000
0.754688 0.375000 0.000000
0.787500 0.375000 0.000000
0.820312 0.375000 0.000000
0.853125 0.375000 0.000000
0.885938 0.375000 0.000000
0.918750 0.375000 0.000000
0.951563 0.375000 0.000000
0.984375 0.375000 0.000000
1.000000 0.375000 0.000000
1.000000 0.375000 0.000000
0.000000 0.406250 0.000000
0.032813 0.406250 0.000000
0.065625 0.406250 0.000000
0.098438 0.406250 0.000000
0.131250 0.406250 0.000000
0.164062 0.406250 0.000000
0.196875 0.406250 0.000000
0.229688 0.406250 0.000000
0.262500 0.406250 0.000000
0.295313 0.406250 0.000000
0.328125 0.406250 0.000000
0.360938 0.406250 0.000000
0.393750 0.406250 0.000000
0.426563 0.406250 0.000000
0.459375 0.406250 0.000000
0.492188 0.406250 0.000000
0.525000 0.406250 0.000000
0.557813 0.406250 0.000000
0.590625 0.406250 0.000000
0.623437 0.406250 0.000000
0.656250 0.406250 0.000000
0.689063 0.406250 0.000000
0.721875 0.406250 0.000000
0.754688 0.406250 0.000000
0.787500 0.406250 0.000000
0.820312 0.406250 0.000000
0.853125 0.406250 0.000000
0.885938 0.406250 0.000000
0.918750 0.406250 0.000000
0.951563 0.406250 0.000000
0.984375 0.406250 0.000000
1.000000 0.406250 0.000000
1.000000 0.406250 0.000000
0.000000 0.437500 0.000000
0.032813 0.437500 0.000000
0.065625 0.437500 0.000000
0.098438 0.437500 0.000000
0.131250 0.437500 0.000000
0.164062 0.437500 0.000000
0.196875 0.437500 0.000000
0.229688 0.437500 0.000000
0.262500 0.437500 0.000000
0.295313 0.437500 0.000000
0.328125 0.437500 0.000000
0.360938 0.437500 0.000000
0.393750 0.437500 0.000000
0.426563 0.437500 0.000000
0.459375 0.437500 0.000000
0.492188 0.437500 0.000000
0.525000 0.437500 0.000000
0.557813 0.437500 0.000000
0.590625 0.437500 0.000000
0.623437 0.437500 0.000000
0.656250 0.437500 0.000000
0.689063 0.437500 0.000000
0.721875 0.437500 0.000000
0.754688 0.437500 0.000000
0.787500 0.437500 0.000000
0.820312 0.437500 0.000000
0.853125 0.437500 0.000000
0.885938 0.437500 0.000000
0.918750 0.437500 0.000000
0.951563 0.437500 0.000000
0.984375 0.437500 0.000000
1.000000 0.437500 0.000000
1.000000 0.437500 0.000000
0.000000 0.468750 0.000000
0.032813 0.468750 0.000000
0.065625 0.468750 0.000000
0.098438 0.468750 0.000000
0.131250 0.468750 0.000000
0.164062 0.468750 0.000000
0.196875 0.468750 0.000000
0.229688 0.468750 0.000000
0.262500 0.468750 0.000000
0.295313 0.468750 0.000000
0.328125 0.468750 0.000000
0.360938 0.468750 0.000000
0.393750 0.468750 0.000000
0.426563 0.468750 0.000000
0.459375 0.468750 0.000000
0.492188 0.468750 0.000000
0.525000 0.468750 0.000000
0.557813 0.468750 0.000000
0.590625 0.468750 0.000000
0.623437 0.468750 0.000000
0.656250 0.468750 0.000000
0.689063 0.468750 0.000000
0.721875 0.468750 0.000000
0.754688 0.468750 0.000000
0.787500 0.468750 0.000000
0.820312 0.468750 0.000000
0.853125 0.468750 0.000000
0.885938 0.468750 0.000000
0.918750 0.468750 0.000000
0.951563 0.468750 0.000000
0.984375 0.468750 0.000000
1.000000 0.468750 0.000000
1.000000 0.468750 0.000000
0.000000 0.500000 0.000000
0.032813 0.500000 0.000000
0.065625 0.500000 0.000000
0.098438 0.500000 0.000000
0.131250 0.500000 0.000000
0.164062 0.500000 0.000000
0.196875 0.500000 0.000000
0.229688 0.500000 0.000000
0.262500 0.500000 0.000000
0.295313 0.500000 0.000000
0.328125 0.500000 0.000000
0.360938 0.500000 0.000000
0.393750 0.500000 0.000000
0.426563 0.500000 0.000000
0.459375 0.500000 0.000000
0.492188 0.500000 0.000000
0.525000 0.500000 0.000000
0.557813 0.500000 0.000000
0.590625 0.500000 0.000000
0.623437 0.500000 0.000000
0.656250 0.500000 0.000000
0.689063 0.500000 0.000000
0.721875 0.500000 0.000000
0.754688 0.500000 0.000000
0.787500 0.500000 0.000000
0.820312 0.500000 0.000000
0.853125 0.500000 0.000000
0.885938 0.500000 0.000000
0.918750 0.500000 0.000000
0.951563 0.500000 0.000000
0.984375 0.500000 0.000000
1.000000 0.500000 0.000000
1.000000 0.500000 0.000000
0.000000 0.531250 0.000000
0.032813 0.531250 0.000000
0.065625 0.531250 0.000000
0.098438 0.531250 0.000000
0.131250 0.531250 0.000000
0.164062 0.531250 0.000000
0.196875 0.531250 0.000000
0.229688 0.531250 0.000000
0.262500 0.531250 0.000000
0.295313 0.531250 0.000000
0.328125 0.531250 0.000000
0.360938 0.531250 0.000000
0.393750 0.531250 0.000000
0.426563 0.531250 0.000000
0.459375 0.531250 0.000000
0.492188 0.531250 0.000000
0.525000 0.531250 0.000000
0.557813 0.531250 0.000000
0.590625 0.531250 0.000000
0.623437 0.531250 0.000000
0.656250 0.531250 0.000000
0.689063 0.531250 0.000000
0.721875 0.531250 0.000000
0.754688 0.531250 0.000000
0.787500 0.531250 0.000000
0.820312 0.531250 0.000000
0.853125 0.531250 0.000000
0.885938 0.531250 0.000000
0.918750 0.531250 0.000000
0.951563 0.531250 0.000000
0.984375 0.531250 0.000000
1.000000 0.531250 0.000000
1.000000 0.531250 0.000000
0.000000 0.562500 0.000000
0.032813 0.562500 0.000000
0.065625 0.562500 0.000000
0.098438 0.562500 0.000000
0.131250 0.562500 0.000000
0.164062 0.562500 0.000000
0.196875 0.562500 0.000000
0.229688 0.562500 0.000000
0.262500 0.562500 0.000000
0.295313 0.562500 0.000000
0.328125 0.562500 0.000000
0.360938 0.562500 0.000000
0.393750 0.562500 0.000000
0.426563 0.562500 0.000000
0.459375 0.562500 0.000000
0.492188 0.562500 0.000000
0.525000 0.562500 0.000000
0.557813 0.562500 0.000000
0.590625 0.562500 0.000000
0.623437 0.562500 0.000000
0.656250 0.562500 0.000000
0.689063 0.562500 0.000000
0.721875 0.562500 0.000000
0.754688 0.562500 0.000000
0.787500 0.562500 0.000000
0.820312 0.562500 0.000000
0.853125 0.562500 0.000000
0.885938 0.562500 0.000000
0.918750 0.562500 0.000000
0.951563 0.562500 0.000000
0.984375 0.562500 0.000000
1.000000 0.562500 0.000000
1.000000 0.562500 0.000000
0.000000 0.593750 0.000000
0.032813 0.593750 0.000000
0.065625 0.593750 0.000000
0.098438 0.593750 0.000000
0.131250 0.593750 0.000000
0.164062 0.593750 0.000000
0.196875 0.593750 0.000000
0.229688 0.593750 0.000000
0.262500 0.593750 0.000000
0.295313 0.593750 0.000000
0.328125 0.593750 0.000000
0.360938 0.593750 0.000000
0.393750 0.593750 0.000000
0.426563 0.593750 0.000000
0.459375 0.593750 0.000000
0.492188 0.593750 0.000000
0.525000 0.593750 0.000000
0.557813 0.593750 0.000000
0.590625 0.593750 0.000000
0.623437 0.593750 0.000000
0.656250 0.593750 0.000000
0.689063 0.593750 0.000000
0.721875 0.593750 0.000000
0.754688 0.593750 0.000000
0.787500 0.593750 0.000000
0.820312 0.593750 0.000000
0.853125 0.593750 0.000000
0.885938 0.593750 0.000000
0.918750 0.593750 0.000000
0.951563 0.593750 0.000000
0.984375 0.593750 0.000000
1.000000 0.593750 0.000000
1.000000 0.593750 0.000000
0.000000 0.625000 0.000000
0.032813 0.625000 0.000000
0.065625 0.625000 0.000000
0.098438 0.625000 0.000000
0.131250 0.625000 0.000000
0.164062 0.625000 0.000000
0.196875 0.625000 0.000000
0.229688 0.625000 0.000000
0.262500 0.625000 0.000000
0.295313 0.625000 0.000000
0.328125 0.625000 0.000000
0.360938 0.625000 0.000000
0.393750 0.625000 0.000000
0.426563 0.625000 0.000000
0.459375 0.625000 0.000000
0.492188 0.625000 0.000000
0.525000 0.625000 0.000000
0.557813 0.625000 0.000000
0.590625 0.625000 0.000000
0.623437 0.625000 0.000000
0.656250 0.625000 0.000000
0.689063 0.625000 0.000000
0.721875 0.625000 0.000000
0.754688 0.625000 0.000000
0.787500 0.625000 0.000000
0.820312 0.625000 0.000000
0.853125 0.625000 0.000000
0.885938 0.625000 0.000000
0.918750 0.625000 0.000000
0.951563 0.625000 0.000000
0.984375 0.625000 0.000000
1.000000 0.625000 0.000000
1.000000 0.625000 0.000000
0.000000 0.656250 0.000000
0.032813 0.656250 0.000000
0.065625 0.656250 0.000000
0.098438 0.656250 0.000000
0.131250 0.656250 0.000000
0.164062 0.656250 0.000000
0.196875 0.656250 0.000000
0.229688 0.656250 0.000000
0.262500 0.656250 0.000000
0.295313 0.656250 0.000000
0.328125 0.656250 0.000000
0.360938 0.656250 0.000000
0.393750 0.656250 0.000000
0.426563 0.656250 0.000000
0.459375 0.656250 0.000000
0.492188 0.656250 0.000000
0.525000 0.656250 0.000000
0.557813 0.656250 0.000000
0.590625 0.656250 0.000000
0.623437 0.656250 0.000000
0.656250 0.656250 0.000000
0.689063 0.656250 0.000000
0.721875 0.656250 0.000000
0.754688 0.656250 0.000000
0.787500 0.656250 0.000000
0.820312 0.656250 0.000000
0.853125 0.656250 0.000000
0.885938 0.656250 0.000000
0.918750 0.656250 0.000000
0.951563 0.656250 0.000000
0.984375 0.656250 0.000000
1.000000 0.656250 0.000000
1.000000 0.656250 0.000000
0.000000 0.687500 0.000000
0.032813 0.687500 0.000000
0.065625 0.687500 0.000000
0.098438 0.687500 0.000000
0.131250 0.687500 0.000000
0.164062 0.687500 0.000000
0.196875 0.687500 0.000000
0.229688 0.687500 0.000000
0.262500 0.687500 0.000000
0.295313 0.687500 0.000000
0.328125 0.687500 0.000000
0.360938 0.687500 0.000000
0.393750 0.687500 0.000000
0.426563 0.687500 0.000000
0.459375 0.687500 0.000000
0.492188 0.687500 0.000000
0.525000 0.687500 0.000000
0.557813 0.687500 0.000000
0.590625 0.687500 0.000000
0.623437 0.687500 0.000000
0.656250 0.687500 0.000000
0.689063 0.687500 0.000000
0.721875 0.687500 0.000000
0.754688 0.687500 0.000000
0.787500 0.687500 0.000000
0.820312 0.687500 0.000000
0.853125 0.687500 0.000000
0.885938 0.687500 0.000000
0.918750 0.687500 0.000000
0.951563 0.687500 0.000000
0.984375 0.687500 0.000000
1.000000 0.687500 0.000000
1.000000 0.687500 0.000000
0.000000 0.718750 0.000000
0.032813 0.718750 0.000000
0.065625 0.718750 0.000000
0.098438 0.718750 0.000000
0.131250 0.718750 0.000000
0.164062 0.718750 0.000000
0.196875 0.718750 0.000000
0.229688 0.718750 0.000000
0.262500 0.718750 0.000000
0.295313 0.718750 0.000000
0.328125 0.718750 0.000000
0.360938 0.718750 0.000000
0.393750 0.718750 0.000000
0.426563 0.718750 0.000000
0.459375 0.718750 0.000000
0.492188 0.718750 0.000000
0.525000 0.718750 0.000000
0.557813 0.718750 0.000000
0.590625 0.718750 0.000000
0.623437 0.718750 0.000000
0.656250 0.718750 0.000000
0.689063 0.718750 0.000000
0.721875 0.718750 0.000000
0.754688 0.718750 0.000000
0.787500 0.718750 0.000000
0.820312 0.718750 0.000000
0.853125 0.718750 0.000000
0.885938 0.718750 0.000000
0.918750 0.718750 0.000000
0.951563 0.718750 0.000000
0.984375 0.718750 0.000000
1.000000 0.718750 0.000000
1.000000 0.718750 0.000000
0.000000 0.750000 0.000000
0.032813 0.750000 0.000000
0.065625 0.750000 0.000000
0.098438 0.750000 0.000000
0.131250 0.750000 0.000000
0.164062 0.750000 0.000000
0.196875 0.750000 0.000000
0.229688 0.750000 0.000000
0.262500 0.750000 0.000000
0.295313 0.750000 0.000000
0.328125 0.750000 0.000000
0.360938 0.750000 0.000000
0.393750 0.750000 0.000000
0.426563 0.750000 0.000000
0.459375 0.750000 0.000000
0.492188 0.750000 0.000000
0.525000 0.750000 0.000000
0.557813 0.750000 0.000000
0.590625 0.750000 0.000000
0.623437 0.750000 0.000000
0.656250 0.750000 0.000000
0.689063 0.750000 0.000000
0.721875 0.750000 0.000000
0.754688 0.750000 0.000000
0.787500 0.750000 0.000000
0.820312 0.750000 0.000000
0.853125 0.750000 0.000000
0.885938 0.750000 0.000000
0.918750 0.750000 0.000000
0.951563 0.750000 0.000000
0.984375 0.750000 0.000000
1.000000 0.750000 0.000000
1.000000 0.750000 0.000000
0.000000 0.781250 0.000000
0.032813 0.781250 0.000000
0.065625 0.781250 0.000000
0.098438 0.781250 0.000000
0.131250 0.781250 0.000000
0.164062 0.781250 0.000000
0.196875 0.781250 0.000000
0.229688 0.781250 0.000000
0.262500 0.781250 0.000000
0.295313 0.781250 0.000000
0.328125 0.781250 0.000000
0.360938 0.781250 0.000000
0.393750 0.781250 0.000000
0.426563 0.781250 0.000000
0.459375 0.781250 0.000000
0.492188 0.781250 0.000000
0.525000 0.781250 0.000000
0.557813 0.781250 0.000000
0.590625 0.781250 0.000000
0.623437 0.781250 0.000000
0.656250 0.781250 0.000000
0.689063 0.781250 0.000000
0.721875 0.781250 0.000000
0.754688 0.781250 0.000000
0.787500 0.781250 0.000000
0.820312 0.781250 0.000000
0.853125 0.781250 0.000000
0.885938 0.781250 0.000000
0.918750 0.781250 0.000000
0.951563 0.781250 0.000000
0.984375 0.781250 0.000000
1.000000 0.781250 0.000000
1.000000 0.781250 0.000000
0.000000 0.812500 0.000000
0.032813 0.812500 0.000000
0.065625 0.812500 0.000000
0.098438 0.812500 0.000000
0.131250 0.812500 0.000000
0.164062 0.812500 0.000000
0.196875 0.812500 0.000000
0.229688 0.812500 0.000000
0.262500 0.812500 0.000000
0.295313 0.812500 0.000000
0.328125 0.812500 0.000000
0.360938 0.812500 0.000000
0.393750 0.812500 0.000000
0.426563 0.812500 0.000000
0.459375 0.812500 0.000000
0.492188 0.812500 0.000000
0.525000 0.812500 0.000000
0.557813 0.812500 0.000000
0.590625 0.812500 0.000000
0.623437 0.812500 0.000000
0.656250 0.812500 0.000000
0.689063 0.812500 0.000000
0.721875 0.812500 0.000000
0.754688 0.812500 0.000000
0.787500 0.812500 0.000000
0.820312 0.812500 0.000000
0.853125 0.812500 0.000000
0.885938 0.812500 0.000000
0.918750 0.812500 0.000000
